X: 38551
T: Stevie's First Bar
R: hornpipe
M: 4/4
K: Bminor
|:f2|BBdB c2BA|BffB g2fe|Ae~A2 AecA|dcde efcd|
BBdB c2BA|BffB g2fe|Ae~A2 AecA|decA B2:|
|:de|fBBa ~B2BB|fBBf g2fe|Ae~A2 AecA|dcde efcd|
[1 fBBa ~B2BB|fBBf g2fe|Ae~A2 AecA|decA B2:|
[2 BBdB c2BA|BffB g2fe|Ae~A2 AecA|decA B2||
|:a2|BcdB ceBc|fBcg Bdga|~A2Ae cAAA|ceef feef|
BcdB ceBc|fBcg Bdga|~A2Ae cAAA|decA B2:|
|:a2|Baa~B- Baca|daa~d- daca|AceA ceAc|dfAd feea|
Baa~B- Baca|daa~d- daca|AceA ceAc|decA B2:|

